remix/System/toggle-fill.svg

<svg viewBox="0 0 24 24" fill="currentColor" xmlns="http://www.w3.org/2000/svg"><path d="M8 5H16C19.866 5 23 8.13401 23 12C23 15.866 19.866 19 16 19H8C4.13401 19 1 15.866 1 12C1 8.13401 4.13401 5 8 5ZM16 15C17.6569 15 19 13.6569 19 12C19 10.3431 17.6569 9 16 9C14.3431 9 13 10.3431 13 12C13 13.6569 14.3431 15 16 15Z"/></svg>

<svg viewBox="0 0 24 24" xmlns="http://www.w3.org/2000/svg"><path fill="none" d="M0 0h24v24H0Z"/><path d="M8 5h8v0c3.86 0 7 3.13 7 7 0 3.86-3.14 7-7 7H8v0c-3.87 0-7-3.14-7-7 0-3.87 3.13-7 7-7Zm8 10v0c1.65 0 3-1.35 3-3 0-1.66-1.35-3-3-3v0c-1.66 0-3 1.34-3 3 0 1.65 1.34 3 3 3Z"/></svg>
